X: 25779
T: Mash-Tub March, The
R: waltz
M: 3/4
K: Dmajor
|:FG AB AG|FG AF D2|FG AB AF|A2 d2 c2|
Bc de fd|ed cB A2|Bc df ec|dA FA D2:|
|:fe fg af|ed cB A2|BG Bc dB|AG FE D2|
fd fg af|ed cB A2|Bc df ec|dA FA D2:|

